X:248
T: BEI SEDAN AUF DEN HOEHEN
N: E1386B
O: Europa, Mitteleuropa, Deutschland, Rheinland
R: Staende -, Soldaten -, Kriegs - Lied
M: 3/4
L: 1/8
K: Bb
F2 | B2F2FF | G2G2
B2 | A3EGG | F2z2
F2 | d2c2BB | B2G2
c2 | B3BAA | B4

@@@ Tune index: 4932
